X:197
%%pagewidth 9in
%%vocalfont Baskerville10Pro 14
T:Have at thy coat, old woman
M:C
L:1/8
K:F
%%score 1 2
V:1 clef-treble
V:2 clef-bass octave=-1
%%%%pos vol below
[V:1]AB|c3d c3A & F8|BG3 d2(AB) & D8|c3d [Ec]2G2 & F8|
w:My* name is ho-nest Har-ry,* And* I love lit-tle
[V:2]FG|A3B A3F|G8|[CA]4[CG]4|
[V:1]AF3-F2 (de)|(f>e) d2 (c>B) A2 & F4 F4|(G>A)G2 d2(AB) & D8|c3d [Ec]2G2 & F4x4|AF3-F2||
w:Ma-ry;* In* spite* of Cis,* or jeal-*ous Bess, I'll* have my own va-ga-ry.*
[V:2]F6 Bc|d>c B2 A>G F2|B8|[CA]4[CG]4|[F,F]6||

